static/assets/head_icons_png/man/bizi/1004530.svg

<svg xmlns="http://www.w3.org/2000/svg" width="11" height="18"><g><radialGradient id="a" gradientUnits="userSpaceOnUse" gradientTransform="matrix(.00336 -.00021 .00047 .0056 6.8 8.15)" spreadMethod="pad" cx="0" cy="0" r="819.2" fx="0" fy="0"><stop offset=".337" stop-color="#f9c29f"/><stop offset="1" stop-color="#fedec1" stop-opacity="0"/></radialGradient><path d="M10.25 9.3q-.1.9-2.1 1.45-.6.15-1.1 1.2V12l-.1-.15q-.35-1.6-.2-3.35.1-1.8.65-4.45v.6V4q.9 3.15 2.15 3.85l.55.45.15 1" fill="url(#a)"/><path d="M5.3 16.85l-.3.05h-.35l-.5-.4.85.25 1-.35-.7.45" fill="#fff" fill-opacity=".502"/><path d="M7.15 14.35l-.5 1.3-.2.35.45-1.15.05-.75-.4-5.6.3-5.95.25 1.65q.2 2.5-.05 3.4-.35 1.1-.25 2.55l.15.6q.45 2.75.2 3.6" fill="#f8b98d" fill-opacity=".502"/><radialGradient id="b" gradientUnits="userSpaceOnUse" gradientTransform="matrix(.00229 -.00421 .00441 .00218 7.1 2.15)" spreadMethod="pad" cx="0" cy="0" r="819.2" fx="0" fy="0"><stop offset="0" stop-color="#f39b61" stop-opacity=".643"/><stop offset="1" stop-color="#f8be98" stop-opacity=".353"/></radialGradient><path d="M8.45 5.8L7.1 4.2l-.25-1.65V2.5q-.1-.5.45-1.1Q7.9.75 9.25 0q-.35 1.05.8 1.6-1.55 1.75-1.5 3.35l.1 1.2V6.3l-.2-.5" fill="url(#b)"/><radialGradient id="c" gradientUnits="userSpaceOnUse" gradientTransform="matrix(.0241 0 0 .02304 4.5 -1.15)" spreadMethod="pad" cx="0" cy="0" r="819.2" fx="0" fy="0"><stop offset="0" stop-color="#f39b61" stop-opacity=".471"/><stop offset="1" stop-color="#f8be98" stop-opacity="0"/></radialGradient><path d="M2.75 14.6l.15.8-.75-1.45q-.4-1.05-.8-1.15l-.7.1.2-.45q.65-1 .75-2.75.05-1.8.55-4.7.45-2.65-.7-3L1 .45v-.2Q3.1.9 3.75 2.1l.25.7q-.8 2.55-.8 3.9l.2 2.5-.15.9-.1 1-.4 3.5" fill="url(#c)"/><radialGradient id="d" gradientUnits="userSpaceOnUse" gradientTransform="matrix(.00494 .00047 -.0005 .00471 7.9 2.75)" spreadMethod="pad" cx="0" cy="0" r="819.2" fx="0" fy="0"><stop offset="0" stop-color="#f39b61" stop-opacity=".502"/><stop offset="1" stop-color="#f8be98" stop-opacity=".353"/></radialGradient><path d="M9.75 8l-.05-.05.05-.1V8" fill="url(#d)"/><radialGradient id="e" gradientUnits="userSpaceOnUse" gradientTransform="matrix(-.00008 .01457 -.01506 -.00008 13.7 10.2)" spreadMethod="pad" cx="0" cy="0" r="819.2" fx="0" fy="0"><stop offset="0" stop-color="#f39b61" stop-opacity=".98"/><stop offset="1" stop-color="#f8be98" stop-opacity="0"/></radialGradient><path d="M7.45 12.7q.65-1.35 1-4.15-.1.8-.05 1.5-.05 1.45.75 2.4l.25.4-.6-.15q-.8 0-1.1 1.15l-.25-1.15" fill="url(#e)"/><radialGradient id="f" gradientUnits="userSpaceOnUse" gradientTransform="matrix(.01596 0 0 .01526 8.6 5.5)" spreadMethod="pad" cx="0" cy="0" r="819.2" fx="0" fy="0"><stop offset="0" stop-color="#f39b61" stop-opacity=".871"/><stop offset="1" stop-color="#f8be98" stop-opacity="0"/></radialGradient><path d="M7.9 15.45l-.15-1.2-.05-.4Q8 12.7 8.8 12.7l.6.15.15.3.3 1.55q-.05 1-1.55 1.4l.35-.65H8.4l-.6.5.1-.5" fill="url(#f)"/><linearGradient id="g" gradientUnits="userSpaceOnUse" gradientTransform="matrix(-.00592 -.00043 .0008 -.0104 4.85 9.25)" x1="-819.2" x2="819.2"><stop offset="0" stop-color="#f39b61" stop-opacity=".333"/><stop offset="1" stop-color="#f8be98" stop-opacity=".871"/></linearGradient><path d="M6 16.4l.45-.4.2-.35.5-1.3q.25-.85-.2-3.6l.5 1.95.25 1.15.05.4.15 1.2-.1.5q-1.3 1.1-2.2 1.4l-.7.15q-.8-.05-1.9-1.15l-.7-.7-.65-.45q-.3-.05-.45.6l-.65-.45q.2-.6.7-.6.45-.05 1.55.9l.95.7.9.55H5l.3-.05.7-.45" fill="url(#g)"/><radialGradient id="h" gradientUnits="userSpaceOnUse" gradientTransform="matrix(.00606 0 0 .0058 5.15 16.55)" spreadMethod="pad" cx="0" cy="0" r="819.2" fx="0" fy="0"><stop offset="0" stop-color="#f39b61" stop-opacity=".592"/><stop offset="1" stop-color="#f8be98" stop-opacity="0"/></radialGradient><path d="M3.75 16.35l-.2-.15-.65-.8-.15-.8.4-3.5q-.05 2.2.05 3.2.1.95.5 1.6l.45.6.5.4-.9-.55" fill="url(#h)"/><radialGradient id="i" gradientUnits="userSpaceOnUse" gradientTransform="matrix(.00769 0 0 .00735 -5.25 11.25)" spreadMethod="pad" cx="0" cy="0" r="819.2" fx="0" fy="0"><stop offset="0" stop-color="#f39b61"/><stop offset="1" stop-color="#f8be98" stop-opacity=".553"/></radialGradient><path d="M3.55 16.2l.2.15-.95-.7q-1.1-.95-1.55-.9-.5 0-.7.6-.45-.4-.45-1l.2-1 .35-.45.7-.1q.4.1.8 1.15l.75 1.45.65.8" fill="url(#i)"/><radialGradient id="j" gradientUnits="userSpaceOnUse" gradientTransform="matrix(.01596 0 0 .01526 8.6 5.5)" spreadMethod="pad" cx="0" cy="0" r="819.2" fx="0" fy="0"><stop offset="0" stop-color="#f39b61" stop-opacity=".463"/><stop offset="1" stop-color="#f8be98" stop-opacity="0"/></radialGradient><path d="M7.45 12.7l-.5-1.95-.15-.6q-.1-1.45.25-2.55.25-.9.05-3.4l1.35 1.6.2.5-.15 1.1-.05.6v.55q-.35 2.8-1 4.15" fill="url(#j)"/><radialGradient id="k" gradientUnits="userSpaceOnUse" gradientTransform="matrix(.00021 -.00049 .00134 .00037 1.1 13.9)" spreadMethod="pad" cx="0" cy="0" r="819.2" fx="0" fy="0"><stop offset=".314" stop-color="#fff" stop-opacity=".431"/><stop offset="1" stop-color="#fff" stop-opacity="0"/></radialGradient><path d="M1.75 14.4l-.8-.05-.75-.3q-.25-.2-.15-.35l.4-.25.85.05.7.4.25.35-.5.15" fill="url(#k)"/><radialGradient id="l" gradientUnits="userSpaceOnUse" gradientTransform="matrix(.00117 .00015 -.00005 .00671 4.25 7.15)" spreadMethod="pad" cx="0" cy="0" r="819.2" fx="0" fy="0"><stop offset=".314" stop-color="#fff" stop-opacity=".431"/><stop offset="1" stop-color="#fff" stop-opacity="0"/></radialGradient><path d="M4.25 1.8q.3 0 .55 1.65l.15 3.85-.2 3.8-.2.8-.05.1-.3.65q-.25-.05-.4-.75v-.1l-.15-.75Q3.4 9.35 3.5 7.1l.2-3.85q.2-1.55.55-1.45" fill="url(#l)"/><radialGradient id="m" gradientUnits="userSpaceOnUse" gradientTransform="matrix(.00096 .0001 -.00006 .00188 4 14.45)" spreadMethod="pad" cx="0" cy="0" r="819.2" fx="0" fy="0"><stop offset=".314" stop-color="#fff" stop-opacity=".431"/><stop offset="1" stop-color="#fff" stop-opacity="0"/></radialGradient><path d="M4.8 14.6l-.35 1.05q-.2.4-.55.35l-.5-.55-.2-1.05.2-1.05q.3-.4.6-.35l.55.4.25 1.2" fill="url(#m)"/><radialGradient id="n" gradientUnits="userSpaceOnUse" gradientTransform="matrix(-.00037 -.0004 -.00114 .00076 8.85 14.1)" spreadMethod="pad" cx="0" cy="0" r="819.2" fx="0" fy="0"><stop offset=".314" stop-color="#fff" stop-opacity=".431"/><stop offset="1" stop-color="#fff" stop-opacity="0"/></radialGradient><path d="M8 14.4l.6-.55q.35-.3.75-.4l.45.1-.1.45-.5.5-.8.3-.45-.05q-.15-.1.05-.35" fill="url(#n)"/><radialGradient id="o" gradientUnits="userSpaceOnUse" gradientTransform="matrix(.00027 .00047 -.00037 .0011 6.65 15.15)" spreadMethod="pad" cx="0" cy="0" r="819.2" fx="0" fy="0"><stop offset=".314" stop-color="#fff" stop-opacity=".431"/><stop offset="1" stop-color="#fff" stop-opacity="0"/></radialGradient><path d="M6.95 14.35l.05.35-.15.8-.15.3-.2.15h-.2q-.1-.15-.05-.5l.1-.75.3-.5q.15-.15.25 0l.05.15" fill="url(#o)"/><path d="M7.7 16.1l-.35.2-.15.15-.25.2-.1.05.05-.05.6-.7.25-.2q.55-.45.95-.35v.05l-1 .65m-5.15-.05l-.35-.2-.65-.45-.1-.2q.2-.2.75.3l.2.15.6.8v.05l-.05-.05-.25-.25-.15-.15" fill="#823909" fill-opacity=".702"/></g></svg>

<?xml version="1.0" encoding="utf-8"?>
<svg version="1.1" id="Layer_1"
xmlns="http://www.w3.org/2000/svg"
xmlns:xlink="http://www.w3.org/1999/xlink"
xmlns:author="http://www.sothink.com"
width="11px" height="18px"
xml:space="preserve">
<g id="437" transform="matrix(1, 0, 0, 1, 0, 0)">
<radialGradient
id="RadialGradID_3883" gradientUnits="userSpaceOnUse" gradientTransform="matrix(0.00335693, -0.000213623, 0.000473022, 0.00559998, 6.8, 8.15)" spreadMethod ="pad" cx="0" cy="0" r="819.2" fx="0" fy="0" >
<stop  offset="0.337255"  style="stop-color:#F9C29F;stop-opacity:1" />
<stop  offset="1"  style="stop-color:#FEDEC1;stop-opacity:0" />
</radialGradient>
<path style="fill:url(#RadialGradID_3883) " d="M10.25,9.3Q10.15 10.2 8.15 10.75Q7.55 10.9 7.05 11.95L7.05 12L6.95 11.85Q6.6 10.25 6.75 8.5Q6.85 6.7 7.4 4.05L7.4 4.65L7.4 4Q8.3 7.15 9.55 7.85L10.1 8.3L10.25 9.3" />
<path style="fill:#FFFFFF;fill-opacity:0.501961" d="M5.3,16.85L5 16.9L4.9 16.9L4.75 16.9L4.65 16.9L4.15 16.5L5 16.75L6 16.4L5.3 16.85" />
<path style="fill:#F8B98D;fill-opacity:0.501961" d="M7.15,14.35L6.65 15.65L6.45 16L6.9 14.85L6.95 14.1L6.55 8.5L6.85 2.55L7.1 4.2Q7.3 6.7 7.05 7.6Q6.7 8.7 6.8 10.15L6.95 10.75Q7.4 13.5 7.15 14.35" />
<radialGradient
id="RadialGradID_3884" gradientUnits="userSpaceOnUse" gradientTransform="matrix(0.00228882, -0.00421143, 0.00440979, 0.00218201, 7.1, 2.15)" spreadMethod ="pad" cx="0" cy="0" r="819.2" fx="0" fy="0" >
<stop  offset="0"  style="stop-color:#F39B61;stop-opacity:0.643137" />
<stop  offset="1"  style="stop-color:#F8BE98;stop-opacity:0.352941" />
</radialGradient>
<path style="fill:url(#RadialGradID_3884) " d="M8.45,5.8L7.1 4.2L6.85 2.55L6.85 2.5Q6.75 2 7.3 1.4Q7.9 0.75 9.25 0Q8.9 1.05 10.05 1.6Q8.5 3.35 8.55 4.95L8.65 6.15L8.65 6.25L8.65 6.3L8.45 5.8" />
<radialGradient
id="RadialGradID_3885" gradientUnits="userSpaceOnUse" gradientTransform="matrix(0.0240936, 0, 0, 0.0230408, 4.5, -1.15)" spreadMethod ="pad" cx="0" cy="0" r="819.2" fx="0" fy="0" >
<stop  offset="0"  style="stop-color:#F39B61;stop-opacity:0.470588" />
<stop  offset="1"  style="stop-color:#F8BE98;stop-opacity:0" />
</radialGradient>
<path style="fill:url(#RadialGradID_3885) " d="M2.75,14.6L2.9 15.4L2.15 13.95Q1.75 12.9 1.35 12.8L0.65 12.9L0.85 12.45Q1.5 11.45 1.6 9.7Q1.65 7.9 2.15 5Q2.6 2.35 1.45 2L1 0.45L1 0.25Q3.1 0.9 3.75 2.1L4 2.8Q3.2 5.35 3.2 6.7L3.4 9.2L3.25 10.1L3.15 11.1L2.75 14.6" />
<radialGradient
id="RadialGradID_3886" gradientUnits="userSpaceOnUse" gradientTransform="matrix(0.00494385, 0.000473022, -0.00050354, 0.00471497, 7.9, 2.75)" spreadMethod ="pad" cx="0" cy="0" r="819.2" fx="0" fy="0" >
<stop  offset="0"  style="stop-color:#F39B61;stop-opacity:0.501961" />
<stop  offset="1"  style="stop-color:#F8BE98;stop-opacity:0.352941" />
</radialGradient>
<path style="fill:url(#RadialGradID_3886) " d="M9.75,8L9.7 7.95L9.75 7.85L9.75 8" />
<radialGradient
id="RadialGradID_3887" gradientUnits="userSpaceOnUse" gradientTransform="matrix(-7.62939e-005, 0.0145721, -0.0150604, -7.62939e-005, 13.7, 10.2)" spreadMethod ="pad" cx="0" cy="0" r="819.2" fx="0" fy="0" >
<stop  offset="0"  style="stop-color:#F39B61;stop-opacity:0.980392" />
<stop  offset="1"  style="stop-color:#F8BE98;stop-opacity:0" />
</radialGradient>
<path style="fill:url(#RadialGradID_3887) " d="M7.45,12.7Q8.1 11.35 8.45 8.55Q8.35 9.35 8.4 10.05Q8.35 11.5 9.15 12.45L9.4 12.85L8.8 12.7Q8 12.7 7.7 13.85L7.45 12.7" />
<radialGradient
id="RadialGradID_3888" gradientUnits="userSpaceOnUse" gradientTransform="matrix(0.0159607, 0, 0, 0.0152588, 8.6, 5.5)" spreadMethod ="pad" cx="0" cy="0" r="819.2" fx="0" fy="0" >
<stop  offset="0"  style="stop-color:#F39B61;stop-opacity:0.870588" />
<stop  offset="1"  style="stop-color:#F8BE98;stop-opacity:0" />
</radialGradient>
<path style="fill:url(#RadialGradID_3888) " d="M7.9,15.45L7.75 14.25L7.7 13.85Q8 12.7 8.8 12.7L9.4 12.85L9.55 13.15L9.85 14.7Q9.8 15.7 8.3 16.1L8.65 15.45L8.4 15.45L7.8 15.95L7.9 15.45" />
<linearGradient
id="LinearGradID_3889" gradientUnits="userSpaceOnUse" gradientTransform="matrix(-0.00592041, -0.000427246, 0.000808716, -0.0103912, 4.85, 9.25)" spreadMethod ="pad" x1="-819.2" y1="0" x2="819.2" y2="0" >
<stop  offset="0" style="stop-color:#F39B61;stop-opacity:0.333333" />
<stop  offset="1" style="stop-color:#F8BE98;stop-opacity:0.870588" />
</linearGradient>
<path style="fill:url(#LinearGradID_3889) " d="M6,16.4L6.45 16L6.65 15.65L7.15 14.35Q7.4 13.5 6.95 10.75L7.45 12.7L7.7 13.85L7.75 14.25L7.9 15.45L7.8 15.95Q6.5 17.05 5.6 17.35L4.9 17.5Q4.1 17.45 3 16.35L2.3 15.65L1.65 15.2Q1.35 15.15 1.2 15.8L0.55 15.35Q0.75 14.75 1.25 14.75Q1.7 14.7 2.8 15.65L3.75 16.35L4.65 16.9L4.75 16.9L4.9 16.9L5 16.9L5.3 16.85L6 16.4" />
<radialGradient
id="RadialGradID_3890" gradientUnits="userSpaceOnUse" gradientTransform="matrix(0.00605774, 0, 0, 0.00579834, 5.15, 16.55)" spreadMethod ="pad" cx="0" cy="0" r="819.2" fx="0" fy="0" >
<stop  offset="0"  style="stop-color:#F39B61;stop-opacity:0.592157" />
<stop  offset="1"  style="stop-color:#F8BE98;stop-opacity:0" />
</radialGradient>
<path style="fill:url(#RadialGradID_3890) " d="M3.75,16.35L3.55 16.2L2.9 15.4L2.75 14.6L3.15 11.1Q3.1 13.3 3.2 14.3Q3.3 15.25 3.7 15.9L4.15 16.5L4.65 16.9L3.75 16.35" />
<radialGradient
id="RadialGradID_3891" gradientUnits="userSpaceOnUse" gradientTransform="matrix(0.00769043, 0, 0, 0.00735474, -5.25, 11.25)" spreadMethod ="pad" cx="0" cy="0" r="819.2" fx="0" fy="0" >
<stop  offset="0"  style="stop-color:#F39B61;stop-opacity:1" />
<stop  offset="1"  style="stop-color:#F8BE98;stop-opacity:0.552941" />
</radialGradient>
<path style="fill:url(#RadialGradID_3891) " d="M3.55,16.2L3.75 16.35L2.8 15.65Q1.7 14.7 1.25 14.75Q0.75 14.75 0.55 15.35Q0.1 14.95 0.1 14.35L0.3 13.35L0.65 12.9L1.35 12.8Q1.75 12.9 2.15 13.95L2.9 15.4L3.55 16.2" />
<radialGradient
id="RadialGradID_3892" gradientUnits="userSpaceOnUse" gradientTransform="matrix(0.0159607, 0, 0, 0.0152588, 8.6, 5.5)" spreadMethod ="pad" cx="0" cy="0" r="819.2" fx="0" fy="0" >
<stop  offset="0"  style="stop-color:#F39B61;stop-opacity:0.462745" />
<stop  offset="1"  style="stop-color:#F8BE98;stop-opacity:0" />
</radialGradient>
<path style="fill:url(#RadialGradID_3892) " d="M7.45,12.7L6.95 10.75L6.8 10.15Q6.7 8.7 7.05 7.6Q7.3 6.7 7.1 4.2L8.45 5.8L8.65 6.3L8.5 7.4L8.45 8L8.45 8.55Q8.1 11.35 7.45 12.7" />
<radialGradient
id="RadialGradID_3893" gradientUnits="userSpaceOnUse" gradientTransform="matrix(0.000213623, -0.000488281, 0.00134277, 0.000366211, 1.1, 13.9)" spreadMethod ="pad" cx="0" cy="0" r="819.2" fx="0" fy="0" >
<stop  offset="0.313725"  style="stop-color:#FFFFFF;stop-opacity:0.431373" />
<stop  offset="1"  style="stop-color:#FFFFFF;stop-opacity:0" />
</radialGradient>
<path style="fill:url(#RadialGradID_3893) " d="M1.75,14.4L0.95 14.35L0.2 14.05Q-0.05 13.85 0.05 13.7L0.45 13.45L1.3 13.5L2 13.9L2.25 14.25L1.75 14.4" />
<radialGradient
id="RadialGradID_3894" gradientUnits="userSpaceOnUse" gradientTransform="matrix(0.00117493, 0.000152588, -4.57764e-005, 0.00671387, 4.25, 7.15)" spreadMethod ="pad" cx="0" cy="0" r="819.2" fx="0" fy="0" >
<stop  offset="0.313725"  style="stop-color:#FFFFFF;stop-opacity:0.431373" />
<stop  offset="1"  style="stop-color:#FFFFFF;stop-opacity:0" />
</radialGradient>
<path style="fill:url(#RadialGradID_3894) " d="M4.25,1.8Q4.55 1.8 4.8 3.45L4.95 7.3L4.75 11.1L4.55 11.9L4.5 12L4.2 12.65Q3.95 12.6 3.8 11.9L3.8 11.8L3.65 11.05Q3.4 9.35 3.5 7.1L3.7 3.25Q3.9 1.7 4.25 1.8" />
<radialGradient
id="RadialGradID_3895" gradientUnits="userSpaceOnUse" gradientTransform="matrix(0.000961304, 0.000106812, -6.10352e-005, 0.00187683, 4, 14.45)" spreadMethod ="pad" cx="0" cy="0" r="819.2" fx="0" fy="0" >
<stop  offset="0.313725"  style="stop-color:#FFFFFF;stop-opacity:0.431373" />
<stop  offset="1"  style="stop-color:#FFFFFF;stop-opacity:0" />
</radialGradient>
<path style="fill:url(#RadialGradID_3895) " d="M4.8,14.6L4.45 15.65Q4.25 16.05 3.9 16L3.4 15.45L3.2 14.4L3.4 13.35Q3.7 12.95 4 13L4.55 13.4L4.8 14.6" />
<radialGradient
id="RadialGradID_3896" gradientUnits="userSpaceOnUse" gradientTransform="matrix(-0.000366211, -0.000396729, -0.00114441, 0.000762939, 8.85, 14.1)" spreadMethod ="pad" cx="0" cy="0" r="819.2" fx="0" fy="0" >
<stop  offset="0.313725"  style="stop-color:#FFFFFF;stop-opacity:0.431373" />
<stop  offset="1"  style="stop-color:#FFFFFF;stop-opacity:0" />
</radialGradient>
<path style="fill:url(#RadialGradID_3896) " d="M8,14.4L8.6 13.85Q8.95 13.55 9.35 13.45L9.8 13.55L9.7 14L9.2 14.5L8.4 14.8L7.95 14.75Q7.8 14.65 8 14.4" />
<radialGradient
id="RadialGradID_3897" gradientUnits="userSpaceOnUse" gradientTransform="matrix(0.000274658, 0.000473022, -0.000366211, 0.00109863, 6.65, 15.15)" spreadMethod ="pad" cx="0" cy="0" r="819.2" fx="0" fy="0" >
<stop  offset="0.313725"  style="stop-color:#FFFFFF;stop-opacity:0.431373" />
<stop  offset="1"  style="stop-color:#FFFFFF;stop-opacity:0" />
</radialGradient>
<path style="fill:url(#RadialGradID_3897) " d="M6.95,14.35L7 14.7L6.85 15.5L6.7 15.8L6.5 15.95L6.3 15.95Q6.2 15.8 6.25 15.45L6.35 14.7L6.65 14.2Q6.8 14.05 6.9 14.2L6.95 14.35" />
<path style="fill:#823909;fill-opacity:0.701961" d="M7.7,16.1L7.35 16.3L7.2 16.45L6.95 16.65L6.85 16.7L6.9 16.65L7.5 15.95L7.75 15.75Q8.3 15.3 8.7 15.4L8.7 15.45L7.7 16.1M2.55,16.05L2.2 15.85L1.55 15.4L1.45 15.2Q1.65 15 2.2 15.5L2.4 15.65L3 16.45L3 16.5L2.95 16.45L2.7 16.2L2.55 16.05" />
</g>
</svg>
